ui_kit/lib/assets/icons/leave.svg

<svg width="24" height="24" viewBox="0 0 24 24" fill="none" xmlns="http://www.w3.org/2000/svg">
<path fill-rule="evenodd" clip-rule="evenodd" d="M18.8789 8.60103C18.9032 8.60398 18.9273 8.60811 18.9512 8.61342C19.9961 8.84556 20.9305 9.42709 21.6003 10.262C22.27 11.0969 22.635 12.1352 22.635 13.2056V13.9875C22.635 14.536 22.4171 15.062 22.0293 15.4498C21.6414 15.8377 21.1154 16.0555 20.567 16.0555H17.272C16.7235 16.0555 16.1975 15.8377 15.8097 15.4498C15.4219 15.062 15.204 14.536 15.204 13.9875C15.204 13.8369 15.1441 13.6924 15.0376 13.5859C14.9311 13.4794 14.7866 13.4196 14.636 13.4196H9.364C9.21336 13.4196 9.06889 13.4794 8.96237 13.5859C8.85585 13.6924 8.796 13.8369 8.796 13.9875C8.796 14.536 8.57813 15.062 8.1903 15.4498C7.80248 15.8377 7.27647 16.0555 6.72801 16.0555H3.43302C2.88455 16.0555 2.35855 15.8377 1.97072 15.4498C1.5829 15.062 1.36502 14.536 1.36502 13.9875V13.2058M18.8789 8.60103C14.3348 7.7265 9.66573 7.72559 5.12128 8.59837C5.09694 8.60131 5.07274 8.60546 5.04877 8.61078C4.00339 8.84304 3.06855 9.42503 2.39875 10.2606C1.72905 11.096 1.3644 12.1351 1.36502 13.2058M5.2211 9.34293V9.38643L5.28576 9.67745L5.2211 9.34293ZM5.36309 10.0775C4.65551 10.2374 4.02298 10.6326 3.56911 11.1988C3.1129 11.7679 2.86452 12.4756 2.86502 13.205L2.86502 13.9875C2.86502 14.1382 2.92486 14.2827 3.03138 14.3892C3.1379 14.4957 3.28238 14.5555 3.43302 14.5555H6.72801C6.87865 14.5555 7.02312 14.4957 7.12964 14.3892C7.23616 14.2827 7.296 14.1382 7.296 13.9875C7.296 13.4391 7.51388 12.9131 7.90171 12.5253C8.28953 12.1374 8.81553 11.9196 9.364 11.9196H14.636C15.1845 11.9196 15.7105 12.1374 16.0983 12.5253C16.4861 12.9131 16.704 13.4391 16.704 13.9875C16.704 14.1382 16.7638 14.2827 16.8703 14.3892C16.9769 14.4957 17.1213 14.5555 17.272 14.5555H20.567C20.7176 14.5555 20.8621 14.4957 20.9686 14.3892C21.0751 14.2827 21.135 14.1382 21.135 13.9875V13.2055C21.135 12.4765 20.8864 11.7693 20.4302 11.2006C19.9829 10.643 19.3623 10.2514 18.6675 10.0872C18.657 10.0857 18.6466 10.0839 18.6363 10.0819C14.2528 9.23285 9.74722 9.23198 5.36343 10.0793L5.36309 10.0775Z" fill="white"/>
</svg>

<svg xmlns="http://www.w3.org/2000/svg" width="24" height="24" fill="none" viewBox="0 0 24 24"><path fill="#fff" fill-rule="evenodd" d="M18.879 8.601a.75.75 0 0 1 .072.012 4.704 4.704 0 0 1 3.684 4.593v.782a2.068 2.068 0 0 1-2.068 2.067h-3.295a2.068 2.068 0 0 1-2.068-2.067.568.568 0 0 0-.568-.568H9.364a.568.568 0 0 0-.568.568 2.068 2.068 0 0 1-2.068 2.067H3.433a2.068 2.068 0 0 1-2.068-2.067v-.782M18.879 8.6a36.435 36.435 0 0 0-13.83.01 4.704 4.704 0 0 0-3.684 4.595m3.856-3.863v.043l.065.291-.065-.334Zm.142.735a3.204 3.204 0 0 0-2.498 3.127v.783a.568.568 0 0 0 .568.568h3.295a.568.568 0 0 0 .568-.568 2.068 2.068 0 0 1 2.068-2.068h5.272a2.068 2.068 0 0 1 2.068 2.068.568.568 0 0 0 .568.568h3.295a.568.568 0 0 0 .568-.568v-.782a3.204 3.204 0 0 0-2.499-3.124 34.923 34.923 0 0 0-13.273-.003v-.002Z" clip-rule="evenodd"/></svg>
